X: 1
T: Andrea's Waltz
C: Bob Pasquarello
M: 3/4
K: Em
[|\
"Em"E4FG | "Em/D#"A4B2 | "Em/D"E4FG | "A/C#"A4B2 | "C"c4dc | "G"BG3B2 | "D"A6- | "B7'"A2G2F2 ||
"Em"E4FG | "Em/D#"A4B2 | "Em/D"E4FG | "Em/C#"A4B2 | "C"ed cB GF | "D"A3B1/2A1/2 GF | "G"G6- | G2"B7"B2A2 |]
[|\
"E"^G2A2B2 | "Am"cE3AG | "D"F2G2A2 | "G"BD3GF | "Em"E3FG2 | "A/C#"E3FG2 | "C"E2F2G2 | "B"B4"B7"A2 ||
"E"^G2A2B2 | "Am"cE3AG | "D"F2G2A2 | "G"BD3GF | "Cmaj7"E2G2B2 | "B7"A2G2F2 | "Em"HE6 | "B7"EG FE ^DB, |]
